Adwaita++-Light/panel/16/qtpass-tray.svg

<svg height="16" width="16" xmlns="http://www.w3.org/2000/svg">
  <g fill="#444">
    <path d="m8.0000013 1c-1.26666 0-2.35614.557-3.03086 1.4004-.67472.84338-.96914 1.91442-.96914 2.9996v4.6h2v-4.6c0-.71482.20558-1.34378.53086-1.7504.32528-.4066.7358-.6496 1.46914-.6496s1.14386.243 1.46914.6496c.32528.40662.5308597 1.03558.5308597 1.7504v4.6h2v-4.6c0-1.08518-.29442-2.15622-.96914-2.9996-.67472-.8434-1.7641997-1.4004-3.0308597-1.4004z" opacity=".3"/>
    <path d="m5.359375 6.0019531c-1.9259286-.0715629-3.2583498 1.2126884-3.3535156 2.6035157-.0494063.7220651.2339497 1.4713412.9414062 2.0761722l5.0527344 4.318359 5.052734-4.318359c.707452-.604824.990809-1.3540956.941407-2.0761722-.095166-1.3908182-1.427587-2.6750818-3.353516-2.6035157-1.0961976.0405699-2.0914667.5575614-2.640625 1.3691407-.5491612-.8115862-1.544436-1.3285714-2.640625-1.3691407zm1.6425781 1.9980469h.9980469.9980469v2h-.4765625l.9765625 2h-1.4980469-1.4980469l.9765625-2h-.4765625z"/>
  </g>
</svg>

<svg xmlns="http://www.w3.org/2000/svg" width="16" height="16" version="1.1">
 <defs>
  <style id="current-color-scheme" type="text/css">
   .ColorScheme-Text { color:#444444; } .ColorScheme-Highlight { color:#4285f4; }
  </style>
 </defs>
 <path style="opacity:0.3;fill:currentColor" class="ColorScheme-Text" d="m 8.0000013,1 c -1.26666,0 -2.35614,0.557 -3.03086,1.4004 -0.67472,0.84338 -0.96914,1.91442 -0.96914,2.9996 l 0,4.6 2,0 0,-4.6 c 0,-0.71482 0.20558,-1.34378 0.53086,-1.7504 C 6.8561413,3.243 7.2666613,3 8.0000013,3 c 0.73334,0 1.14386,0.243 1.46914,0.6496 0.32528,0.40662 0.5308597,1.03558 0.5308597,1.7504 l 0,4.6 2,0 0,-4.6 c 0,-1.08518 -0.29442,-2.15622 -0.96914,-2.9996 C 10.356141,1.557 9.2666613,1 8.0000013,1 Z"/>
 <path style="fill:currentColor" class="ColorScheme-Text" d="M 5.359375 6.0019531 C 3.4334464 5.9303902 2.1010252 7.2146415 2.0058594 8.6054688 C 1.9564531 9.3275339 2.2398091 10.07681 2.9472656 10.681641 L 8 15 L 13.052734 10.681641 C 13.760186 10.076817 14.043543 9.3275454 13.994141 8.6054688 C 13.898975 7.2146506 12.566554 5.930387 10.640625 6.0019531 C 9.5444274 6.042523 8.5491583 6.5595145 8 7.3710938 C 7.4508388 6.5595076 6.455564 6.0425224 5.359375 6.0019531 z M 7.0019531 8 L 8 8 L 8.9980469 8 L 8.9980469 10 L 8.5214844 10 L 9.4980469 12 L 8 12 L 6.5019531 12 L 7.4785156 10 L 7.0019531 10 L 7.0019531 8 z"/>
</svg>
